48x48/apps/appimagekit-cozydrive.svg

<svg xmlns="http://www.w3.org/2000/svg" width="48" height="48"><circle style="opacity:.2" cx="24" cy="25" r="20"/><circle style="fill:#207bf6" cx="24" cy="24" r="20"/><path style="opacity:.2;fill:#f4f4f7" d="M24 4A20 20 0 0 0 4 24a20 20 0 0 0 .021.582A20 20 0 0 1 24 5a20 20 0 0 1 19.979 19.418A20 20 0 0 0 44 24 20 20 0 0 0 24 4z"/><path style="opacity:.2" d="M24 13a8 8 0 0 0-7.94 7.066A8 8 0 0 0 9 28a8 8 0 0 0 8 8h14a8 8 0 0 0 8-8 8 8 0 0 0-7.066-7.94A8 8 0 0 0 24 13z"/><circle style="fill:#f4f4f7" cx="24" cy="20" r="8"/><circle style="fill:#f4f4f7" cx="17" cy="27" r="8"/><circle style="fill:#f4f4f7" cx="31" cy="27" r="8"/><path style="fill:#f4f4f7" d="M17 27.59h14v7.405H17z"/><path style="fill:none;stroke:#207bf6;stroke-width:1px" d="M20 26s1.58 1.5 4 1.5 4-1.5 4-1.5"/><path style="fill:none;stroke:#207bf6;stroke-width:1px;stroke-linecap:round;stroke-linejoin:round" d="m20.5 25.2-.162 1.003-.638.497M27.784 25.2l.162 1.003.638.497"/></svg>

<svg xmlns="http://www.w3.org/2000/svg" width="48" height="48" version="1.1">
 <circle style="opacity:0.2" cx="24" cy="25" r="20"/>
 <circle style="fill:#207bf6" cx="24" cy="24" r="20"/>
 <path style="opacity:0.2;fill:#f4f4f7" d="M 24,4 A 20,20 0 0 0 4,24 20,20 0 0 0 4.0215,24.582 20,20 0 0 1 24,5 20,20 0 0 1 43.979,24.418 20,20 0 0 0 44,24 20,20 0 0 0 24,4 Z"/>
 <path style="opacity:0.2" d="M 24,13 A 8,8 0 0 0 16.060547,20.066406 8,8 0 0 0 9,28 8,8 0 0 0 17,36 H 31 A 8,8 0 0 0 39,28 8,8 0 0 0 31.933594,20.060547 8,8 0 0 0 24,13 Z"/>
 <circle style="fill:#f4f4f7" cx="24" cy="20" r="8"/>
 <circle style="fill:#f4f4f7" cx="17" cy="27" r="8"/>
 <circle style="fill:#f4f4f7" cx="31" cy="27" r="8"/>
 <rect style="fill:#f4f4f7" width="14" height="7.405" x="17" y="27.59"/>
 <path style="fill:none;stroke:#207bf6;stroke-width:1px" d="m 20,26 c 0,0 1.580644,1.5 4,1.5 2.419356,0 4,-1.5 4,-1.5"/>
 <path style="fill:none;stroke:#207bf6;stroke-width:1px;stroke-linecap:round;stroke-linejoin:round" d="M 20.5,25.2 20.338,26.203 19.7,26.7"/>
 <path style="fill:none;stroke:#207bf6;stroke-width:1px;stroke-linecap:round;stroke-linejoin:round" d="m 27.783784,25.2 0.162,1.003 0.638,0.497"/>
</svg>
